actions/24/media-repeat-none.svg

<?xml version="1.0" encoding="UTF-8" standalone="no"?>
<svg
   width="24"
   height="24"
   version="1.1"
   id="svg11"
   sodipodi:docname="media-repeat-none.svg"
   inkscape:version="1.1.2 (0a00cf5339, 2022-02-04)"
   xmlns:inkscape="http://www.inkscape.org/namespaces/inkscape"
   xmlns:sodipodi="http://sodipodi.sourceforge.net/DTD/sodipodi-0.dtd"
   xmlns="http://www.w3.org/2000/svg"
   xmlns:svg="http://www.w3.org/2000/svg">
  <sodipodi:namedview
     id="namedview13"
     pagecolor="#000000"
     bordercolor="#666666"
     borderopacity="1.0"
     inkscape:pageshadow="2"
     inkscape:pageopacity="0"
     inkscape:pagecheckerboard="0"
     showgrid="false"
     inkscape:zoom="28.416667"
     inkscape:cx="11.982405"
     inkscape:cy="11.964809"
     inkscape:window-width="1482"
     inkscape:window-height="967"
     inkscape:window-x="0"
     inkscape:window-y="29"
     inkscape:window-maximized="1"
     inkscape:current-layer="g9" />
  <defs
     id="defs3">
    <style
       id="current-color-scheme"
       type="text/css">
   .ColorScheme-Text { color:#eeeeec; } .ColorScheme-Highlight { color:#367bf0; } .ColorScheme-NeutralText { color:#ffcc44; } .ColorScheme-PositiveText { color:#3db47e; } .ColorScheme-NegativeText { color:#dd4747; }
  </style>
  </defs>
  <g
     transform="translate(4,4)"
     id="g9">
    <path
       style="fill:currentColor"
       class="ColorScheme-NegativeText"
       d="M 10,2 V 3.4141 L 11.586,5 10,6.5859 V 8 H 11.414 L 13,6.4141 14.586,8 H 16 V 6.5859 L 14.414,5 16,3.4141 V 2 H 14.586 L 13,3.5859 11.414,2 Z"
       id="path5" />
    <path
       style="opacity:0.35;fill:currentColor"
       class="ColorScheme-Text"
       d="m 5,2.7641534 v 0 V 4 H 3 C 1,4 1,6 1,6 v 6 c 0,0 0,2 2,2 h 10 c 2,0 2,-2 2,-2 v -2 h -2 v 2 H 3 V 6 h 2 v 1.1282043 l 0.7947287,0.2757492 v 0 L 8.463148,5.402639 v 0 L 8.3836042,4.5377031 5.681844,2.511383 Z"
       id="path7"
       sodipodi:nodetypes="cccsccssccccccccccccccc" />
  </g>
</svg>

<svg xmlns="http://www.w3.org/2000/svg" width="24" height="24" version="1.1">
 <defs>
  <style id="current-color-scheme" type="text/css">
   .ColorScheme-Text { color:#eeeeec; } .ColorScheme-Highlight { color:#367bf0; } .ColorScheme-NeutralText { color:#ffcc44; } .ColorScheme-PositiveText { color:#3db47e; } .ColorScheme-NegativeText { color:#dd4747; }
  </style>
 </defs>
 <g transform="translate(4,4)">
  <path style="fill:currentColor" class="ColorScheme-NegativeText" d="M 10,2 V 3.4141 L 11.586,5 10,6.5859 V 8 H 11.414 L 13,6.4141 14.586,8 H 16 V 6.5859 L 14.414,5 16,3.4141 V 2 H 14.586 L 13,3.5859 11.414,2 Z"/>
  <path style="fill:currentColor;opacity:.35" class="ColorScheme-Text" d="M 5 2 L 5 4 L 3 4 C 1 4 1 6 1 6 L 1 12 C 1 12 1 14 3 14 L 13 14 C 15 14 15 12 15 12 L 15 10 L 13 10 L 13 12 L 3 12 L 3 6 L 5 6 L 5 8 L 9 5 L 5 2 z"/>
 </g>
</svg>
